app/wwwroot/images/bc-wallet.svg

<svg width="53" height="52" viewBox="0 0 53 52" fill="none" xmlns="http://www.w3.org/2000/svg">
<g id="Layer_1" clip-path="url(#clip0_612_226)">
<g id="Clip path group">
<mask id="mask0_612_226" style="mask-type:luminance" maskUnits="userSpaceOnUse" x="0" y="0" width="53" height="52">
<g id="clippath">
<path id="Vector" d="M26.39 52C40.7494 52 52.39 40.3594 52.39 26C52.39 11.6406 40.7494 0 26.39 0C12.0306 0 0.390015 11.6406 0.390015 26C0.390015 40.3594 12.0306 52 26.39 52Z" fill="white"/>
</g>
</mask>
<g mask="url(#mask0_612_226)">
<g id="Group">
<path id="Vector_2" d="M52.39 0H0.390015V52H52.39V0Z" fill="#65799E"/>
<path id="Vector_3" d="M43.1179 9.39555L38.4277 7.17387L29.7238 13.2097L24.3247 9.38742L22.3285 10.8652L17.778 7.74058L12.4323 11.4105C12.4323 11.4105 6.46802 14.8738 6.26287 14.8738C6.11458 14.8738 2.42685 11.9834 0.390015 10.3777V51.9995H52.39V6.96109L49.1588 5.15937L43.1179 9.39605V9.39555Z" fill="#234075"/>
<path id="Vector_4" d="M0.390015 22.7734V52H52.39V28.5005C48.8831 29.2998 45.042 29.7507 41.1613 29.7507C29.1241 29.7507 12.6974 23.2385 0.390015 22.7734Z" fill="#003366"/>
<g id="Group_2">
<path id="Vector_5" d="M28.3456 14.1868L22.6378 18.262C21.9934 18.722 21.2215 18.9693 20.4298 18.9693H13.9968C13.9202 18.9693 13.8887 18.8708 13.9511 18.8266L24.3069 11.4344C24.3618 11.3953 24.4354 11.3953 24.4898 11.4344L28.3456 14.1868Z" fill="#FCBA19"/>
<path id="Vector_6" d="M31.2792 13.845L24.1013 18.9693H38.3901C38.4698 18.9693 38.5028 18.8668 38.4378 18.8205L31.4676 13.8455C31.4112 13.8054 31.3356 13.8054 31.2792 13.8455V13.845Z" fill="#FCBA19"/>
</g>
<path id="Vector_7" d="M32.6732 25.5384H40.7596C40.85 25.5384 40.9231 25.4653 40.9231 25.3749V22.912C40.9231 21.581 39.8445 20.5019 38.5135 20.5019H12.6446C12.2094 20.5019 11.8569 20.8548 11.8569 21.2895V39.7602C11.8569 40.1954 12.2094 40.5478 12.6446 40.5478H38.5135C39.8445 40.5478 40.9231 39.4692 40.9231 38.1382V35.6748C40.9231 35.585 40.85 35.5118 40.7596 35.5118H32.6732C29.9193 35.5118 27.687 33.279 27.687 30.5251C27.687 27.7712 29.9193 25.5384 32.6732 25.5384ZM40.7596 27.071H32.8865C31.9333 27.071 31.071 27.4574 30.4464 28.082C29.8218 28.7066 29.4354 29.5694 29.4354 30.5226C29.4354 32.4284 30.9806 33.9737 32.8865 33.9737H40.7596C40.85 33.9737 40.9231 33.9005 40.9231 33.8102V27.2345C40.9231 27.1446 40.85 27.071 40.7596 27.071ZM32.6285 31.9912C32.0115 31.8906 31.5144 31.393 31.4138 30.7765C31.3996 30.6912 31.3955 30.6079 31.3955 30.5251C31.3955 30.4423 31.3996 30.3591 31.4138 30.2743C31.5144 29.6573 32.0115 29.1596 32.6285 29.0591C33.5613 28.9067 34.3627 29.6232 34.3627 30.5251C34.3627 31.427 33.5613 32.1435 32.6285 31.9912Z" fill="url(#paint0_linear_612_226)"/>
<path id="Vector_8" d="M38.5135 20.5019H12.6446C12.2094 20.5019 11.8569 20.8548 11.8569 21.2895V39.7602C11.8569 40.1954 12.2094 40.5478 12.6446 40.5478H38.5135C39.8445 40.5478 40.9231 39.4692 40.9231 38.1382V35.6748C40.9231 35.585 40.85 35.5118 40.7596 35.5118H39.5012V38.1382C39.5012 38.6831 39.0584 39.1259 38.5135 39.1259H13.2788V21.9238H38.5135C39.0584 21.9238 39.5012 22.3671 39.5012 22.912V25.5384H40.7596C40.85 25.5384 40.9231 25.4653 40.9231 25.3749V22.912C40.9231 21.581 39.8445 20.5019 38.5135 20.5019Z" fill="white"/>
</g>
</g>
</g>
</g>
<defs>
<linearGradient id="paint0_linear_612_226" x1="26.39" y1="40.5478" x2="26.39" y2="20.5019" gradientUnits="userSpaceOnUse">
<stop stop-color="#EAEAEB"/>
<stop offset="1" stop-color="white"/>
</linearGradient>
<clipPath id="clip0_612_226">
<rect width="52" height="52" fill="white" transform="translate(0.390015)"/>
</clipPath>
</defs>
</svg>

<svg fill="none" xmlns="http://www.w3.org/2000/svg" viewBox="0 0 53 52">
  <g clip-path="url(#a)">
    <mask id="b" style="mask-type:luminance" maskUnits="userSpaceOnUse" x="0" y="0" width="53" height="52">
      <path d="M26.39 52c14.36 0 26-11.64 26-26s-11.64-26-26-26-26 11.64-26 26 11.64 26 26 26Z" fill="#fff"/>
    </mask>
    <g mask="url(#b)">
      <path d="M52.39 0h-52v52h52V0Z" fill="#65799E"/>
      <path d="m43.118 9.396-4.69-2.222-8.704 6.036-5.4-3.823-1.996 1.478-4.55-3.124-5.346 3.67s-5.964 3.463-6.17 3.463c-.147 0-3.835-2.89-5.872-4.496v41.621h52V6.962L49.159 5.16l-6.041 4.237Z" fill="#234075"/>
      <path d="M.39 22.773V52h52V28.5a51.05 51.05 0 0 1-11.229 1.25c-12.037 0-28.464-6.512-40.771-6.977Z" fill="#036"/>
      <g fill="#FCBA19">
        <path d="m28.346 14.187-5.708 4.075a3.8 3.8 0 0 1-2.208.707h-6.433c-.077 0-.108-.098-.046-.142l10.356-7.393a.157.157 0 0 1 .183 0l3.856 2.753ZM31.28 13.845 24.1 18.969h14.29c.079 0 .112-.102.047-.149l-6.97-4.975a.163.163 0 0 0-.189 0Z"/>
      </g>
      <path d="M32.673 25.538h8.087c.09 0 .163-.073.163-.163v-2.463a2.41 2.41 0 0 0-2.41-2.41H12.646a.788.788 0 0 0-.788.788v18.47c0 .435.352.788.788.788h25.869a2.41 2.41 0 0 0 2.41-2.41v-2.463a.163.163 0 0 0-.164-.163h-8.087a4.987 4.987 0 0 1 0-9.974Zm8.087 1.533h-7.873a3.44 3.44 0 0 0-2.44 1.011 3.451 3.451 0 0 0 2.44 5.892h7.873c.09 0 .163-.073.163-.164v-6.576a.164.164 0 0 0-.163-.163Zm-8.131 4.92a1.484 1.484 0 0 1-1.215-1.215 1.517 1.517 0 0 1-.019-.25 1.484 1.484 0 1 1 2.967 0c0 .901-.8 1.618-1.733 1.465Z" fill="url(#c)"/>
      <path d="M38.514 20.502h-25.87a.788.788 0 0 0-.787.788v18.47c0 .435.352.788.788.788h25.869a2.41 2.41 0 0 0 2.41-2.41v-2.463a.163.163 0 0 0-.164-.163H39.5v2.626a.988.988 0 0 1-.987.988H13.279V21.924h25.235c.544 0 .987.443.987.988v2.626h1.259c.09 0 .163-.073.163-.163v-2.463a2.41 2.41 0 0 0-2.41-2.41Z" fill="#fff"/>
    </g>
  </g>
  <defs>
    <linearGradient id="c" x1="26.39" y1="40.548" x2="26.39" y2="20.502" gradientUnits="userSpaceOnUse">
      <stop stop-color="#EAEAEB"/>
      <stop offset="1" stop-color="#fff"/>
    </linearGradient>
    <clipPath id="a">
      <path fill="#fff" transform="translate(.39)" d="M0 0h52v52H0z"/>
    </clipPath>
  </defs>
</svg>
